X:1
T:Christ, the Lord, Is Risen Today
T:Christ, the Lord, Is Risen Today
T:Chester G. Allen
T:Frances Jane (Fanny) Crosby, 1869
T:Public Domain Courtesy of the Cyber Hymnal™
T:Public Domain Courtesy of the Cyber Hymnal™
C:Chester G. Allen
Z:Public Domain
Z:Courtesy of the Cyber Hymnal™
%%score ( 1 2 ) ( 3 4 )
L:1/8
Q:1/4=113
M:4/4
K:Ab
V:1 treble 
V:2 treble 
V:3 bass 
V:4 bass 
V:1
 [CE]3"^Girls" [DF] [CE]2 [CA]2 | [Ec]3 [DB] [CA]2 z2 |"^Chorus" [Ae]3 [Af] [Ae]2 [Bd]2 | %3
w: ~ ~ ~ ~|~ ~ ~|~ ~ ~ ~|
w: Christ, the Lord, is|risen to- day,|He is risen in-|
w: ~ ~ ~ ~|~ ~ ~|~ ~ ~ ~|
w: ~ ~ ~ ~|~ ~ ~|~ ~ ~ ~|
 [Ac]6 z2 |"^Girls" [GB]3 [Ac] [GB]2 [FA]2 | [EG]2 [FA]2 [GB]2 z2 | %6
w: ~|~ ~ ~ ~|~ ~ ~|
w: deed;|Christ, the Lord, is|risen to- day,|
w: ~|~ ~ ~ ~|~ ~ ~|
w: ~|~ ~ ~ ~|~ ~ ~|
"^Chorus" [Ae]3 [Ac] [GB]2 [Gc]2 | A4 z2 ||"^Full Chorus" E2 | [EA]2 [EG]2 [EA]2 [EB]2 | %10
w: ~ ~ ~ ~|~|1.~“He|cap- tive led cap-|
w: He is risen in-|deed.|2.~Let|ev- ery mourn- ing|
w: ~ ~ ~ ~|~|3.~The|great and glor- ious|
w: ~ ~ ~ ~|~|4.~Let|all that fill the|
 [Ec]3 [DB] [CA]2 [EB]2 | [Ec]2 [GB]2 [Ac]2 [Gd]2 | [Ae]3 [Gd] [Ac]2 [Ac]2 | %13
w: tiv- i- ty, He|robbed the grave of|vic- to- ry,” He|
w: soul re- joice, And|sing with one u-|nit- ed voice; The|
w: work is done, Free|grace to all thro’|Christ, the Son; Ho-|
w: earth and sea Break|forth in tune- ful|mel- o- dy, And|
 [GB]2 [Ac]2 [GB]2 [Ac]2 | [GB]6 [Ec]2 | [EB]2 [FA]2 [EG]2 [=DF]2 | E6 E[DE] | %17
w: broke the bars of|death, He|broke the bars of|death. * *|
w: Sav- ior rose to-|day, The|Sav- ior rose to-|day. Hal- le-|
w: san- na to His|name, Ho-|san- na to His|name. * *|
w: swell the might- y|song, And|swell the might- y|song. * *|
 [CA]4 .[EA]2 [EA][EB] | [Ec]4 .[EA]2 [Ac][Gd] | [Ae]4 .[Gd]2 z [Ac] | [GB]4 z2 [GB][Ac] | %21
w: ||||
w: lu- jah, hal- le-|lu- jah, Hal- le-|lu- jah, A-|men. Hal- le-|
w: ||||
w: ||||
 [Bd]4 .[GB]2 [Ec][Ed] | [Ee]4 .[Ed]2 [EA][Ac] | [FB]4 [EA]2 z [DG] | [CA]6 z2 |] %25
w: ||||
w: lu- jah, hal- le-|lu- jah, Hal- le-|lu- jah, A-|men.|
w: ||||
w: ||||
V:2
 x8 | x8 | x8 | x8 | x8 | x8 | x8 | A4 x2 || E2 | x8 | x8 | x8 | x8 | x8 | x8 | x8 | E6 E x | x8 | %18
 x8 | x8 | x8 | x8 | x8 | x8 | x8 |] %25
V:3
 A,3 A, A,2 A,2 | [E,A,]3 [E,G,] [A,,A,]2 z2 | [A,C]3 [A,D] [A,C]2 [G,E]2 | [A,E]6 z2 | %4
 [E,E]3 [E,E] [E,E]2 [E,E]2 | [E,E]2 [E,E]2 [E,E]2 z2 | [A,C]3 [A,E] [E,D]2 [E,E]2 | [A,,C]4 z2 || %8
 E,2 | [A,,C]2 [B,,D]2 [C,E]2 [E,G,]2 | A,3 [E,G,] [A,,A,]2 [E,G,]2 | A,2 [E,E]2 [A,E]2 [B,E]2 | %12
 [CE]3 [B,E] [A,E]2 [A,E]2 | [E,E]2 [A,E]2 [E,E]2 [A,E]2 | [E,E]6 A,2 | %15
 [G,B,]2 [A,C]2 B,2 [B,,A,]2 | G,6 [C,A,][B,,G,] | [A,,A,]4 .[A,,C]2 [C,A,][E,G,] | %18
 A,4 [A,,C]2 [A,E][B,E] | [CE]4 .[B,E]2 z [A,E] | [E,E]4 z2 [D,E][C,E] | [B,,E]4 .[E,E]2 A,[A,B,] | %22
 [A,C]4 .[A,,A,]2 [C,A,][A,,E] | [D,D]4 [E,C]2 z [E,B,] | [A,,A,]6 z2 |] %25
V:4
 A,3 A, A,2 A,2 | x8 | x8 | x8 | x8 | x8 | x8 | x6 || E,2 | x8 | A,3 x5 | A,2 x6 | x8 | x8 | %14
 x6 A,2 | x4 B,2 x2 | (E,4 E,D,) x2 | x8 | x8 | x8 | x8 | x6 A, x | x8 | x8 | x8 |] %25

